assets/Dagger/Flat/dagger_flat.svg

<svg width="32" height="32" viewBox="0 0 32 32" fill="none" xmlns="http://www.w3.org/2000/svg">
<path d="M18 14L11.5 23L2.50003 29.5C1.13326 28.1331 4.50002 22.5 6.52516 20.5251L15.5252 11.5251L18 14Z" fill="#D3D3D3"/>
<path d="M2.50003 29.5C2.50004 29.5 2.50002 29.5 2.50003 29.5C3.86687 30.8668 9.49998 27.5 11.4749 25.4749L20.4749 16.4749L18 14L2.50003 29.5Z" fill="#9B9B9B"/>
<path d="M26.4749 10.4748L22.4749 14.4748C21.108 15.8417 18.892 15.8417 17.5251 14.4748C16.1583 13.108 16.1583 10.8919 17.5251 9.52508L21.5251 5.52508C22.3424 4.70785 23.4486 4.34993 24.51 4.50996L27 4.5L27.49 7.49C27.653 8.55382 27.2942 9.65548 26.4749 10.4748Z" fill="#7D4533"/>
<path d="M30 4.75C30 6.18802 28.8962 7.36825 27.4897 7.4897L24.5103 4.5103C24.6317 3.10376 25.8119 2 27.25 2C28.7687 2 30 3.23122 30 4.75Z" fill="#F9C23C"/>
<path d="M16.5 10.25C16.5 10.4453 16.4796 10.6358 16.4409 10.8196L21.1804 15.5591C21.3642 15.5204 21.5547 15.5 21.75 15.5C23.2688 15.5 24.5 16.7312 24.5 18.25C24.5 19.7688 23.2688 21 21.75 21C20.2312 21 19 19.7688 19 18.25C19 18.0547 19.0204 17.8642 19.0591 17.6804L14.3196 12.9409C14.1358 12.9796 13.9453 13 13.75 13C12.2312 13 11 11.7688 11 10.25C11 8.73122 12.2312 7.5 13.75 7.5C15.2688 7.5 16.5 8.73122 16.5 10.25Z" fill="#F9C23C"/>
<path d="M13.75 12C14.7165 12 15.5 11.2165 15.5 10.25C15.5 9.2835 14.7165 8.5 13.75 8.5C12.7835 8.5 12 9.2835 12 10.25C12 11.2165 12.7835 12 13.75 12Z" fill="#F70A8D"/>
<path d="M21.75 20C22.7165 20 23.5 19.2165 23.5 18.25C23.5 17.2835 22.7165 16.5 21.75 16.5C20.7835 16.5 20 17.2835 20 18.25C20 19.2165 20.7835 20 21.75 20Z" fill="#F70A8D"/>
</svg>

<svg xmlns="http://www.w3.org/2000/svg" width="32" height="32" fill="none"><path fill="#D3D3D3" d="m18 14-6.5 9-9 6.5c-1.367-1.367 2-7 4.025-8.975l9-9L18 14Z"/><path fill="#9B9B9B" d="M2.5 29.5c1.367 1.367 7-2 8.975-4.025l9-9L18 14 2.5 29.5Z"/><path fill="#7D4533" d="m26.475 10.475-4 4a3.5 3.5 0 1 1-4.95-4.95l4-4c.817-.817 1.924-1.175 2.985-1.015L27 4.5l.49 2.99c.163 1.064-.196 2.165-1.015 2.985Z"/><path fill="#F9C23C" d="M30 4.75a2.75 2.75 0 0 1-2.51 2.74l-2.98-2.98a2.75 2.75 0 0 1 5.49.24ZM16.5 10.25c0 .195-.02.386-.06.57l4.74 4.74a2.75 2.75 0 1 1-2.121 2.121l-4.74-4.74a2.75 2.75 0 1 1 2.18-2.69Z"/><path fill="#F70A8D" d="M13.75 12a1.75 1.75 0 1 0 0-3.5 1.75 1.75 0 0 0 0 3.5ZM21.75 20a1.75 1.75 0 1 0 0-3.5 1.75 1.75 0 0 0 0 3.5Z"/></svg>
